assets/images/svg/grooming 1.svg

<svg width="70" height="70" viewBox="0 0 70 70" fill="none" xmlns="http://www.w3.org/2000/svg">
<g clip-path="url(#clip0_19_35)">
<path d="M43.5322 34.2335C44.4509 32.4597 45.0269 30.8538 45.3275 29.4086L40.4841 29.5785C42.4148 31.6647 43.5322 34.2335 43.5322 34.2335Z" fill="black"/>
<path d="M23.3505 26.3221C24.2389 26.259 25.066 25.9982 25.7926 25.5864C27.0435 26.6169 29.9118 28.3549 34.0559 27.1578C34.2965 27.0883 34.5334 27.0388 34.767 27.005C34.4791 26.4234 34.3059 25.7734 34.2818 25.0825C34.1906 22.4825 36.2243 20.301 38.8244 20.2097L41.4859 20.1164C39.8844 19.2795 38.0531 18.9715 36.4566 19.152C32.5774 19.5907 28.5015 17.3151 26.6987 16.1443C25.5835 15.1923 24.1089 14.6602 22.5309 14.7723C19.3415 14.9986 16.9394 17.7677 17.1658 20.9571C17.3921 24.1464 20.1611 26.5485 23.3505 26.3221Z" fill="black"/>
<path d="M33.5587 29.0163C31.97 28.5688 30.3194 29.4933 29.8717 31.082L25.7729 45.6249L26.1837 32.9894C26.5447 30.8416 25.0741 28.6725 22.621 28.4405L18.688 27.7927C16.646 27.5996 14.7831 29.0137 14.444 31.0366L12.3217 37.9766L14.2105 37.8625L17.6173 34.6666L14.3815 39.5378L5.03679 40.1026C3.59073 40.19 2.48941 41.4331 2.57679 42.8791C2.66377 44.3179 3.8998 45.4266 5.35327 45.3391L16.0018 44.6954C16.8229 44.6457 17.5733 44.2137 18.0285 43.5285L21.9869 37.5695L19.4298 44.4594C18.6293 46.6161 16.3293 46.3116 16.1032 46.3748L8.87947 46.8115L12.4947 52.1286C12.7416 52.4917 12.6474 52.986 12.2843 53.2329C11.9215 53.4796 11.427 53.3858 11.1801 53.0225L7.14971 47.0946L5.33805 47.5623C4.09104 47.8842 3.16586 48.9334 3.00275 50.211L0.927696 66.4529C0.687074 68.335 2.15358 69.9998 4.05386 69.9998C5.61447 69.9998 6.96917 68.8396 7.17221 67.2507L8.50564 56.8144H15.7366V63.5302C11.9004 64.2165 8.79935 66.5824 7.59748 68.4972C7.1873 69.1506 7.661 69.9998 8.43252 69.9998H27.3875C28.1589 69.9998 28.6327 69.1505 28.2225 68.4972C27.0205 66.5825 23.9196 64.2166 20.0833 63.5302V56.8144H26.5663C27.9045 56.8144 29.0795 55.9248 29.4425 54.6367L35.6243 32.7031C36.0722 31.1146 35.1473 29.4639 33.5587 29.0163Z" fill="black"/>
<path d="M69.0704 44.5701L63.8852 16.232C63.5702 14.5103 62.1811 13.272 60.5586 13.272C58.2443 13.272 56.7778 13.272 54.6926 13.272C53.6136 13.272 52.6371 13.8254 52.0111 14.7017L51.4038 14.6972L46.8915 12.1917C47.2957 13.395 47.0367 14.7763 46.0993 15.7585C45.5895 16.2925 44.9523 16.6312 44.2806 16.7739L49.4317 19.6342C49.4424 19.6402 49.4536 19.6453 49.4644 19.6511C49.842 19.8538 50.263 19.9625 50.692 19.9656L51.3917 19.9708L48.68 21.939L38.8972 22.2823C37.4418 22.3333 36.3035 23.5545 36.3545 25.0098C36.4044 26.4338 37.5745 27.5541 38.988 27.5541C39.0192 27.5541 39.0507 27.5536 39.082 27.5525L49.6695 27.1811C50.1941 27.1628 50.7012 26.9883 51.126 26.68L57.9681 21.7139L52.3441 28.3583C51.4103 29.4616 50.1755 29.1831 49.7422 29.2537L48.9785 29.2805L46.1809 44.57C46.0041 45.5362 46.6878 46.4342 47.5953 46.4342H49.9071L48.5501 51.5565C48.4877 51.7917 48.4512 52.033 48.4408 52.2759L47.8355 66.4873C47.7563 68.3463 49.1991 69.9175 51.0581 69.9966C51.1071 69.9987 51.1555 69.9998 51.2039 69.9998C52.9985 69.9996 54.4903 68.5842 54.5676 66.774L55.1573 52.9282L56.8776 46.4342H58.1242V53.4259C58.1242 53.6873 58.1547 53.9477 58.2149 54.202L61.3407 67.406C61.7695 69.2174 63.5854 70.3368 65.3952 69.9084C67.2059 69.4798 68.3263 67.6645 67.8976 65.8538L64.8623 53.0325V46.4343H67.656C68.5599 46.4343 69.2472 45.5363 69.0704 44.5701Z" fill="black"/>
<path d="M59.2957 8.04256C60.5265 5.07322 59.1171 1.66834 56.1477 0.437536C53.1784 -0.793263 49.7735 0.616105 48.5427 3.58545C47.3119 6.55479 48.7213 9.95967 51.6906 11.1905C54.66 12.4213 58.0649 11.0119 59.2957 8.04256Z" fill="black"/>
<path d="M29.1808 12.8975C29.5318 13.2325 30.0879 13.2195 30.4228 12.8685L31.3839 11.8615C32.3694 10.8289 33.8554 10.4028 35.2185 10.8261C36.17 11.1218 37.2599 11.0868 38.2461 10.6577L42.3478 14.5721C43.0399 15.2325 44.1358 15.2067 44.7963 14.5149C45.4565 13.8229 45.4309 12.7268 44.739 12.0664L40.6087 8.12455C40.8751 7.37059 40.9266 6.55955 40.7654 5.78446C40.5874 4.92884 40.1515 4.11752 39.4579 3.47742C37.7059 1.86043 34.9618 1.99884 33.3158 3.72353L27.3695 9.95432C27.0344 10.3052 27.0475 10.8612 27.3984 11.1963L29.1808 12.8975ZM35.1279 5.35397C35.8566 4.5904 37.0663 4.56214 37.8299 5.29087C38.5935 6.01959 38.6217 7.22929 37.893 7.99286C37.1643 8.75643 35.9546 8.78469 35.191 8.05596C34.4275 7.32737 34.3992 6.11754 35.1279 5.35397Z" fill="black"/>
</g>
<defs>
<clipPath id="clip0_19_35">
<rect width="70" height="70" fill="white"/>
</clipPath>
</defs>
</svg>

<svg width="70" height="70" fill="none" xmlns="http://www.w3.org/2000/svg"><g clip-path="url(#clip0_19_35)" fill="#000"><path d="M43.532 34.233c.919-1.773 1.495-3.38 1.796-4.824l-4.844.17c1.93 2.086 3.048 4.654 3.048 4.654zM23.35 26.322a5.768 5.768 0 002.443-.736c1.25 1.03 4.119 2.769 8.263 1.572.24-.07.477-.12.711-.153a4.71 4.71 0 014.057-6.795l2.662-.094c-1.602-.837-3.433-1.145-5.03-.964-3.879.439-7.955-1.837-9.757-3.008a5.79 5.79 0 10-3.348 10.178zm10.209 2.694a2.988 2.988 0 00-3.687 2.066l-4.1 14.543.412-12.636c.36-2.147-1.11-4.316-3.563-4.548l-3.933-.648c-2.042-.193-3.905 1.22-4.244 3.244l-2.122 6.94 1.889-.114 3.406-3.196-3.236 4.87-9.344.566a2.623 2.623 0 00.316 5.236l10.649-.644a2.624 2.624 0 002.027-1.166l3.958-5.96-2.557 6.89c-.8 2.157-3.1 1.853-3.327 1.916l-7.224.437 3.616 5.317a.795.795 0 11-1.315.894l-4.03-5.928-1.812.467a3.147 3.147 0 00-2.335 2.649L.928 66.453a3.148 3.148 0 006.244.798l1.334-10.437h7.23v6.716c-3.836.686-6.937 3.052-8.139 4.967A.983.983 0 008.433 70h18.954a.983.983 0 00.835-1.503c-1.202-1.915-4.302-4.28-8.139-4.967v-6.716h6.483a2.99 2.99 0 002.877-2.177l6.181-21.934a2.988 2.988 0 00-2.065-3.687z"/><path d="M69.07 44.57l-5.185-28.338c-.315-1.722-1.704-2.96-3.326-2.96h-5.866c-1.08 0-2.056.553-2.682 1.43l-.607-.005-4.513-2.505a3.532 3.532 0 01-2.61 4.582l5.15 2.86.033.017c.378.203.799.311 1.228.315l.7.005-2.712 1.968-9.783.343a2.637 2.637 0 10.185 5.27l10.587-.37a2.636 2.636 0 001.457-.502l6.842-4.966-5.624 6.644c-.934 1.104-2.169.825-2.602.896l-.764.026-2.797 15.29c-.177.966.507 1.864 1.414 1.864h2.312l-1.357 5.123a3.367 3.367 0 00-.11.719l-.604 14.211a3.369 3.369 0 106.732.287l.59-13.846 1.72-6.494h1.246v6.992c0 .261.03.522.09.776l3.127 13.204a3.37 3.37 0 006.557-1.552l-3.036-12.822v-6.598h2.794c.904 0 1.591-.898 1.414-1.864zM59.296 8.043a5.82 5.82 0 10-10.753-4.457 5.82 5.82 0 0010.753 4.457z"/><path d="M29.18 12.898a.878.878 0 001.243-.03l.96-1.007c.986-1.032 2.472-1.458 3.835-1.035a4.38 4.38 0 003.028-.168l4.102 3.914a1.732 1.732 0 002.391-2.506l-4.13-3.941a4.364 4.364 0 00.156-2.34 4.327 4.327 0 00-1.307-2.308C37.706 1.86 34.962 2 33.316 3.724l-5.947 6.23a.878.878 0 00.03 1.242l1.782 1.702zm5.948-7.544a1.911 1.911 0 112.765 2.639 1.911 1.911 0 01-2.765-2.639z"/></g><defs><clipPath id="clip0_19_35"><path fill="#fff" d="M0 0h70v70H0z"/></clipPath></defs></svg>
